X: 2
T: The Shoemaker's Fancy
R: jig
M: 6/8
L: 1/8
K: Gmaj
|:GEF G2e|dBB dBA|GEF G2e|dBA B2A|!
GEF G2e|dBB def|gba gfe|dBA ABA:|!
|:d2d gfe|dBA ABc|dBd gfe|dBA B2A|!
dBd gfe|dBA def|gba gfe|dBA ABA:|
